app/images/icons/phone.svg

<svg width="16" height="16" viewBox="0 0 16 16" fill="none" xmlns="http://www.w3.org/2000/svg">
<path d="M5.51172 1.68359L6.60547 4.30859C6.76953 4.80078 6.66016 5.22005 6.27734 5.56641L4.9375 6.66016C5.39323 7.6263 5.99479 8.49219 6.74219 9.25781C7.50781 10.0052 8.3737 10.6068 9.33984 11.0625L10.4336 9.72266C10.7799 9.33984 11.1992 9.23047 11.6914 9.39453L14.3164 10.4883C14.5898 10.5977 14.7812 10.7708 14.8906 11.0078C15 11.263 15.0273 11.5273 14.9727 11.8008L14.3164 14.207C14.1341 14.6992 13.7786 14.9635 13.25 15C10.9714 14.9818 8.91146 14.4258 7.07031 13.332C5.22917 12.2383 3.76172 10.7708 2.66797 8.92969C1.57422 7.08854 1.01823 5.02865 1 2.75C1.03646 2.22135 1.30078 1.86589 1.79297 1.68359L4.19922 1.02734C4.47266 0.972656 4.73698 1 4.99219 1.10938C5.22917 1.21875 5.40234 1.41016 5.51172 1.68359Z" fill="#1D53C0"/>
</svg>

<svg width="16" height="16" fill="none" xmlns="http://www.w3.org/2000/svg"><path d="M5.512 1.684l1.093 2.625c.165.492.055.911-.328 1.257L4.937 6.66a9.488 9.488 0 001.805 2.598 9.488 9.488 0 002.598 1.805l1.094-1.34c.346-.383.765-.493 1.257-.328l2.625 1.093c.274.11.465.283.575.52.109.255.136.52.082.793l-.657 2.406c-.182.492-.537.756-1.066.793-2.279-.018-4.339-.574-6.18-1.668A12.422 12.422 0 012.668 8.93C1.574 7.089 1.018 5.029 1 2.75c.036-.529.3-.884.793-1.066l2.406-.657c.274-.054.538-.027.793.082.237.11.41.301.52.575z" fill="#1D53C0"/></svg>
